!!!COM: Bach, Johann Sebastian
!!!OTL: O Haupt voll Blut und Wunden
!!!ONM: No. 98
!!!OCL: Erk
!!!YOE: Riemenschneider, Albert
!!!OPR: 371 Harmonized Chorales and 69 Chorale Melodies with Figured Bass
!!!OPT: Bach Chorale Harmonizations
**kern	**kern	**kern	**kern
! bass	! tenor	! alto	! soprano
*M4/4	*M4/4	*M4/4	*M4/4
*D:	*D:	*D:	*D:
4D	4A	4d	4f#
=1	=1	=1	=1
4G	4G	4d	4b
4F#	4A	4d	4a
8BB	8B	8d	4g
8C#	8A	8e	.
4D	4A	8e	4f#
.	.	8d	.
=2	=2	=2	=2
4GG	4B	4d	2e
4AA	4A	4c#	.
4D;	4A;	4d;	4f#;
4C#	4A#	4e	4cc#
=3	=3	=3	=3
8BB	4F#	8d	4dd
8C#	.	8e	.
8D	4B	4f#	4dd
8E	.	.	.
4F#	4B	4f#	8cc#
.	.	.	8b
4FF#	4A#	8f#	4cc#
.	.	8e	.
=4	=4	=4	=4
2.BB;	2.B;	2.d;	2.b;
!! Repeat from the beginning.
4D	4A	4d	4f#
=1	=1	=1	=1
4G	4G	4d	4b
4F#	4A	4d	4a
8BB	8B	8d	4g
8C#	8A	8e	.
4D	4A	8e	4f#
.	.	8d	.
=2	=2	=2	=2
4GG	4B	4d	2e
4AA	4A	4c#	.
4D;	4A;	4d;	4f#;
4C#	4A#	4e	4cc#
=3	=3	=3	=3
8BB	4F#	8d	4dd
8C#	.	8e	.
8D	4B	4f#	4dd
8E	.	.	.
4F#	4B	4f#	8cc#
.	.	.	8b
4FF#	4A#	8f#	4cc#
.	.	8e	.
=4	=4	=4	=4
2.BB;	2.B;	2.d;	2.b;
!! Continuing.
4B	4f#	8b	4dd
.	.	8an	.
=5	=5	=5	=5
4E	8e	4g	8cc#
.	8d	.	8b
4F#	4c#	8f#	4a
.	.	8e	.
8G	8B	4d	4b
8F#	8A	.	.
4E	8G	4g	4cc#
.	8A	.	.
=6	=6	=6	=6
2D	4B	4g	2dd
.	8A	8f#	.
.	8G	8e	.
4D;	4A;	4f#;	4dd;
4D	4d	4f#	4a
=7	=7	=7	=7
4G	4d	4g	4b
4D	8d	4f#	4a
.	8c	.	.
8E	4B	4f#	4g
8F#	.	.	.
8G	4B	4e	4g
8A	.	.	.
=8	=8	=8	=8
2.B;	2.B;	2.d#;	2.f#;
4G#	4B	4e	4ddn
=9	=9	=9	=9
4A	4A	4e	8cc#
.	.	.	8dd
4C#	8A	4e	4ee
.	8G#	.	.
8F#	8A	4f#	4dd
8G#	8B	.	.
4A	8c#	4e	4cc#
.	8A	.	.
=10	=10	=10	=10
4D	8F#	4f#	2b
.	8B	.	.
4E	4G#	4e	.
4AA;	4A;	4e;	4cc#;
8D	4A	4d	4f#
8C#	.	.	.
=11	=11	=11	=11
4BB	4G	8d	4g
.	.	8c#	.
4AA	4A	4d	4f#
4GG	4B	4d	4e
4AA	8E	4c#	4a
.	8E	.	.
=12	=12	=12	=12
2.D;	2.A;	2.d;	2.f#;
==	==	==	==
*-	*-	*-	*-
!!!CDT: 1685/3//-1750/7/28
!!!OCY: Deutschland
!!!AGN: chorale
!!!AST: Baroque
!!!AIN: vox
!!!YOY: 1941
!!!PPP: New York; London
!!!PPR: G. Schirmer
!!!ENC: David Huron
!!!EED: David Huron
!!!YEN: United States of America
!!!YER: 1992
!!!YEC: Copyright 1992 David Huron
!!!YEM: Rights to all derivative electronic formats reserved.
!!!YER: March 20, 1996
!!!AMT: simple quadruple
!!!EEV: 1.1
